!!!id: EG047
!!!page: 96-97
!!!COM: Anonymous
!!!LYR: Anonymous
!!!PTL@@FR: Chansons Populaires du Canada
!!!OTL@@FR: Hier sur le pont d'Avignon
!!!PUB: G. E. Desbarats
!!!YEM:
!!!PDT: 1865
!!!SMA:
!!!OMD:
!!!AGN-Laforte:
!!!AGN-type:
!!!AGN-rime:
**kern
*clefG2
*k[f#]
*G:
*M2/4
*
*
8d
=1
8.g
16a
8b
8b
=2
8a
8dd
8g
16r
16d
=3
8.g
16a
8b
8b
!!LO:PB:g=original
=4
8a
8dd
8g
16r
16g
==5
*M3/8
4a
8g
=6
4e
8g
=7
8a
8g
8a
=8
4b/
8a
!!LO:PB:g=original
=9
4g
8f#
=10
4e
8g
=11
(4.a
=12
8g)
8r
==||
8r
==||
*
*
==|
!!!RNB: A variant included underneath but on the same page & in 6/8 time (ignored for now)
*-
